X: 1020
T: The Lark in the Morning
N:"2nd Setting"
N:"Collected by J.O'Neill"
B:O'Neill's 1020
Z:Transcribed by Dan G. Petersen, dangp@post6.tele.dk
M:6/8
L:1/8
K:Am
(c/d/)|eAA A^GA|cde fed|eAA A^GA|cde ged|
eaa g^fg|cdc BA^G|ABc def|ecB A2:|
(c/B/)|A2e ecA|G2g dB^G|A2e ece|dcB A2(a/b/)|
c'ba gfe|dBg dB^G|ABc def|ecB A2:|


